insight-ui/public/logo.svg

<?xml version="1.0" encoding="UTF-8"?>
<svg width="56px" height="22px" viewBox="0 0 56 22" version="1.1" xmlns="http://www.w3.org/2000/svg" xmlns:xlink="http://www.w3.org/1999/xlink">
    <!-- Generator: Sketch 50.2 (55047) - http://www.bohemiancoding.com/sketch -->
    <title>logo</title>
    <desc>Created with Sketch.</desc>
    <defs></defs>
    <g id="Page-1" stroke="none" stroke-width="1" fill="none" fill-rule="evenodd">
        <g id="Directory" transform="translate(-140.000000, -18.000000)" fill-rule="nonzero">
            <g id="Group-9">
                <g id="logo" transform="translate(140.000000, 18.000000)">
                    <path d="M50.4231166,14.2536842 C50.9619258,15.0356691 51.8336485,15.5215377 52.7810114,15.5678947 C53.4257948,15.558757 54.0404467,15.2929611 54.4893211,14.8291649 C54.9381955,14.3653687 55.184393,13.7416982 55.173581,13.0957895 C55.1982818,12.7135088 55.1033317,12.3330302 54.9019608,12.0073684 L51.5038184,8.37157895 L55.0175439,4.21473684 C55.1973655,3.86830213 55.2868255,3.48194176 55.2776058,3.09157895 C55.3204563,2.44701591 55.0972722,1.81309521 54.6602536,1.33808332 C54.223235,0.863071436 53.6107112,0.588629919 52.9659443,0.578947368 C51.9211497,0.553623099 50.9350597,1.06172302 50.3479876,1.92789474 L47.9669763,4.92684211 L45.5570691,1.92789474 C44.9699971,1.06172302 43.983907,0.553623099 42.9391125,0.578947368 C42.2943455,0.588629919 41.6818218,0.863071436 41.2448032,1.33808332 C40.8077846,1.81309521 40.5846005,2.44701591 40.627451,3.09157895 C40.6163525,3.48282685 40.7080243,3.87013316 40.8932921,4.21473684 L44.4070175,8.37157895 L41.003096,12.0073684 C40.8082153,12.3353527 40.7175148,12.7149557 40.7430341,13.0957895 C40.7322221,13.7416982 40.9784196,14.3653687 41.427294,14.8291649 C41.8761684,15.2929611 42.4908202,15.558757 43.1356037,15.5678947 C44.0824663,15.5197867 44.9534677,15.0343201 45.4934985,14.2536842 L47.9669763,11.0694737 L50.4231166,14.2536842 Z" id="Shape" fill="#FEBF24"></path>
                    <path d="M36.7669763,21.8610526 C38.1177027,21.8643222 39.2188252,20.7767334 39.2346749,19.4236842 C39.2221324,18.0636167 38.1246194,16.9641439 36.7669763,16.9515789 L28.9882353,16.9515789 L28.9882353,3.20157895 C28.9882353,1.75313952 27.8161362,0.578947368 26.3702786,0.578947368 C24.9244211,0.578947368 23.752322,1.75313952 23.752322,3.20157895 L23.752322,19.2384211 C23.747668,19.935405 24.0219929,20.6051939 24.5139675,21.098047 C25.0059421,21.5909001 25.6745371,21.8657149 26.3702786,21.8610526 L36.7669763,21.8610526 Z M-5.1329519e-16,19.2384211 C-0.00309012578,19.9349306 0.271737097,20.6038073 0.763370659,21.0963188 C1.25500422,21.5888303 1.92268867,21.8641483 2.61795666,21.8610526 C3.31322464,21.8641483 3.98090909,21.5888303 4.47254265,21.0963188 C4.96417622,20.6038073 5.23900344,19.9349306 5.23591331,19.2384211 L5.23591331,8.78263158 L13.2920537,15.0063158 L13.2920537,19.2384211 C13.2920537,20.6868605 14.4641528,21.8610526 15.9100103,21.8610526 C17.3558679,21.8610526 18.527967,20.6868605 18.527967,19.2384211 L18.527967,3.20157895 C18.527967,1.75313952 17.3558679,0.578947368 15.9100103,0.578947368 C14.4641528,0.578947368 13.2920537,1.75313952 13.2920537,3.20157895 L13.2920537,8.29631579 L4.07430341,1.10578947 C3.61983836,0.741596105 3.04916694,0.554460014 2.46769866,0.578947368 C1.09010124,0.613600823 -0.00672661479,1.74583981 -7.94320393e-16,3.12631579 L-5.1329519e-16,19.2384211 Z" id="Shape" fill="#6C757D"></path>
                </g>
            </g>
        </g>
    </g>
</svg>

<svg width="56" height="22" xmlns="http://www.w3.org/2000/svg"><g fill-rule="nonzero" fill="none"><path d="M50.423 14.254a3.044 3.044 0 0 0 2.358 1.314 2.425 2.425 0 0 0 1.708-.739 2.434 2.434 0 0 0 .685-1.733 1.844 1.844 0 0 0-.272-1.089l-3.398-3.635 3.514-4.157c.18-.347.269-.733.26-1.123a2.359 2.359 0 0 0-.618-1.754 2.35 2.35 0 0 0-1.694-.76 3.073 3.073 0 0 0-2.618 1.35l-2.381 2.999-2.41-3A3.073 3.073 0 0 0 42.94.58a2.35 2.35 0 0 0-1.694.76 2.359 2.359 0 0 0-.618 1.753c-.01.39.081.778.266 1.123l3.514 4.157-3.404 3.635a1.884 1.884 0 0 0-.26 1.089 2.425 2.425 0 0 0 2.393 2.472 3.056 3.056 0 0 0 2.357-1.314l2.474-3.185 2.456 3.185z" fill="#FEBF24"/><path d="M36.767 21.861a2.464 2.464 0 0 0 2.468-2.437 2.493 2.493 0 0 0-2.468-2.472h-7.779V3.202A2.62 2.62 0 0 0 26.37.579a2.62 2.62 0 0 0-2.618 2.623v16.036c-.004.697.27 1.367.762 1.86.492.493 1.16.768 1.856.763h10.397zM0 19.238a2.613 2.613 0 0 0 .763 1.858c.492.493 1.16.768 1.855.765a2.604 2.604 0 0 0 1.855-.765 2.613 2.613 0 0 0 .763-1.858V8.783l8.056 6.223v4.232a2.62 2.62 0 0 0 2.618 2.623 2.62 2.62 0 0 0 2.618-2.623V3.202A2.62 2.62 0 0 0 15.91.579a2.62 2.62 0 0 0-2.618 2.623v5.094l-9.218-7.19A2.407 2.407 0 0 0 2.468.579 2.534 2.534 0 0 0 0 3.126v16.112z" fill="#6C757D"/></g></svg>
